32x32/apps/gajim.svg

<svg xmlns="http://www.w3.org/2000/svg" width="32" height="32" version="1">
 <path fill="#7bc136" d="m16 12c-7.732 0-14 4.647-14 10h6v6.615s0.1 1.385 1.5 1.385h13c1.4 0 1.5-1.385 1.5-1.385v-6.615h6c0-5.353-6.268-10-14-10z"/>
 <path fill="#fff" opacity=".2" d="m16 12c-7.732 0-14 4.647-14 10h0.0742c0.721-4.918 6.68-9 13.926-9s13.205 4.082 13.926 9h0.074c0-5.353-6.268-10-14-10z"/>
 <path fill="#4c4c4c" d="m12 12h8l-1 4h-6z"/>
 <circle opacity=".2" cx="16" cy="9" r="6"/>
 <circle fill="#fecd38" cx="16" cy="8" r="6"/>
 <path fill="#fff" opacity=".2" d="m16 2a6 6 0 0 0 -6 6 6 6 0 0 0 0.025 0.498 6 6 0 0 1 5.975 -5.498 6 6 0 0 1 5.975 5.502 6 6 0 0 0 0.025 -0.502 6 6 0 0 0 -6 -6z"/>
 <path opacity=".2" d="m2.0742 22c-0.0484 0.33-0.0742 0.663-0.0742 1h6v-1h-5.9258zm21.926 0v1h6c0-0.33662-0.02584-0.66994-0.07422-1h-5.926zm-16 6.6152v1s0.1 1.385 1.5 1.385h13c1.4 0 1.5-1.3848 1.5-1.3848v-1s-0.1 1.385-1.5 1.385h-13c-1.4 0-1.5-1.385-1.5-1.385z"/>
</svg>

<svg xmlns="http://www.w3.org/2000/svg" width="32" height="32" version="1"><path fill="#7bc136" d="M16 12C8.268 12 2 16.647 2 22h6v6.615S8.1 30 9.5 30h13c1.4 0 1.5-1.385 1.5-1.385V22h6c0-5.353-6.268-10-14-10z"/><path fill="#fff" opacity=".2" d="M16 12C8.268 12 2 16.647 2 22h.074c.721-4.918 6.68-9 13.926-9s13.205 4.082 13.926 9H30c0-5.353-6.268-10-14-10z"/><path fill="#4c4c4c" d="M12 12h8l-1 4h-6z"/><circle opacity=".2" cx="16" cy="9" r="6"/><circle fill="#fecd38" cx="16" cy="8" r="6"/><path fill="#fff" opacity=".2" d="M16 2a6 6 0 0 0-6 6 6 6 0 0 0 .025.498A6 6 0 0 1 16 3a6 6 0 0 1 5.975 5.502A6 6 0 0 0 22 8a6 6 0 0 0-6-6z"/><path opacity=".2" d="M2.074 22A6.88 6.88 0 0 0 2 23h6v-1H2.074zM24 22v1h6c0-.337-.026-.67-.074-1H24zM8 28.615v1S8.1 31 9.5 31h13c1.4 0 1.5-1.385 1.5-1.385v-1S23.9 30 22.5 30h-13C8.1 30 8 28.615 8 28.615z"/></svg>
